X: 7566
T: Cockerel In The Creel, The
R: reel
M: 4/4
K: Gmajor
f|g2ed B2A<G|BddG G2B2|g2ed B2A<G|AAAB e2ef|
g2ed B2A<G|BddG G2B2|d2B<d eAdB|B<AB<d e2e2|
g2ag aaag|eaaf gagd|eaag aaag|egfd e2g2|
e2de AAAB|edBA GGGB|dBaf gfed|B<AB<d e2e2|
Aeed deed|BGGB eBdB|Aeed deed|BAAB e2g2|
eaag aeef|gefd efge|d2 B<d eAdB|B<AB<d e2e2|
g2g<f efge|f<ae<f gefd|AaAa aAaf|gefd e2g2|
f<aA<a aeef|gefd efge|d2B<d eAdB|B<AB<d e2e2|

